X: 1
T: The Honeymoon
R: reel
M: 4/4
L: 1/8
K: Gmaj
dc | BGGG DGGG | B/2c/2d ef gedc |BGGG DGGG | BedB A2 dc |
BGGG DGGG | B/2c/2d ef ggga | bgaf gfed | egdB A2 Bd |
eeef edBA | B/2c/2d ef gedc | BGGG DGGG | BedB A2 Bd |
eeef edBA | (3Bcd ef ggga | bgaf gfed | egdB A4 |


Tune 2064	Setting 15462

